Gruvbox-Plus-Dark/actions/16/format-indent-more.svg

<svg xmlns="http://www.w3.org/2000/svg" width="16" height="16" viewBox="0 0 16 16">
 <defs>
  <style id="current-color-scheme" type="text/css">
   .ColorScheme-Text { color:#ebdbb2; } .ColorScheme-Highlight { color:#458588; }
  </style>
 </defs>
 <path style="fill:currentColor" class="ColorScheme-Text" d="M 1 1 L 1 3 L 15 3 L 15 1 L 1 1 z M 1 5.0039062 L 1 11.003906 L 6 8.0039062 L 1 5.0039062 z M 7 5.0039062 L 7 7.0039062 L 15 7.0039062 L 15 5.0039062 L 7 5.0039062 z M 15 9 L 7 9.0039062 L 7 11.003906 L 15 11 L 15 9 z M 1 13 L 1 15 L 15 15 L 15 13 L 1 13 z"/>
</svg>

<svg width="16" height="16" version="1.1" viewBox="0 0 16 16" xmlns="http://www.w3.org/2000/svg">
  <defs>
    <style type="text/css">.ColorScheme-Text { color:#ebdbb2; } .ColorScheme-Highlight { color:#458588; }</style>
  </defs>
  <path class="ColorScheme-Text" d="m1 1v2h14v-2h-14zm0 4.004v6l5-3-5-3zm6 0v2h8v-2h-8zm8 3.996-8 0.003906v2l8-0.003906v-2zm-14 4v2h14v-2h-14z" fill="currentColor"/>
</svg>
